packages/icons/web/flag_cy_small.svg

<svg width="24" height="24" viewBox="0 0 24 24" fill="none" xmlns="http://www.w3.org/2000/svg">
<path fill-rule="evenodd" clip-rule="evenodd" d="M5.5 6H18.5C19.6046 6 20.5 6.89543 20.5 8V16C20.5 17.1046 19.6046 18 18.5 18H5.5C4.39543 18 3.5 17.1046 3.5 16V8C3.5 6.89543 4.39543 6 5.5 6ZM5.5 6.5C4.67157 6.5 4 7.17157 4 8V16C4 16.8284 4.67157 17.5 5.5 17.5H18.5C19.3284 17.5 20 16.8284 20 16V8C20 7.17157 19.3284 6.5 18.5 6.5H5.5Z" fill="#D8DDE1"/>
<g clip-path="url(#clip0)">
<path d="M18.4 6.5H5.6C4.71634 6.5 4 7.22425 4 8.11765V15.8824C4 16.7758 4.71634 17.5 5.6 17.5H18.4C19.2837 17.5 20 16.7758 20 15.8824V8.11765C20 7.22425 19.2837 6.5 18.4 6.5Z" fill="white"/>
<path fill-rule="evenodd" clip-rule="evenodd" d="M12.6275 13.6837C12.3291 13.8212 12.1987 14.1641 12.2515 14.4925C12.4819 14.3243 12.6963 13.9199 12.6275 13.6837ZM13.0139 13.5219C12.8059 13.6966 12.5235 14.0533 12.6907 14.3308C12.9403 14.1852 13.1083 13.6886 13.0139 13.5219ZM13.4107 13.2793C13.2091 13.4411 13.0203 13.8536 13.1803 14.0881C13.4107 13.9263 13.4899 13.5106 13.4107 13.2793ZM13.8491 13.0366C13.6275 13.2647 13.5195 13.619 13.6731 13.8455C13.8731 13.6352 14.0131 13.2251 13.8491 13.0366ZM14.3435 12.6824C14.1251 12.8296 13.9555 13.3618 14.0931 13.5818C14.3675 13.4346 14.4403 12.8781 14.3435 12.6824ZM14.3235 13.4411C14.7875 13.3294 15.0179 13.0496 15.0411 12.794C14.8203 12.7859 14.2835 13.1297 14.3235 13.4411ZM14.0803 13.8252C14.3603 14.0873 14.9147 13.7727 14.9603 13.6311C14.7923 13.5786 14.3227 13.5786 14.0803 13.8252ZM13.7603 14.0954C13.8323 14.2652 14.4099 14.3138 14.5603 14.1383C14.3467 13.932 14.1163 14.0056 13.7603 14.0938V14.0954ZM13.2003 14.3041C13.1923 14.3413 13.6275 14.6818 14.0003 14.5338C13.9379 14.3858 13.5347 14.1342 13.2003 14.3041ZM12.8003 14.5305C13.0043 14.9107 13.4355 14.8241 13.6003 14.7449C13.4595 14.571 13.1059 14.4133 12.8003 14.5313V14.5305ZM12.3523 14.7336C12.4979 15.0344 12.6755 15.1736 13.1411 15.1299C13.0651 14.9697 12.7171 14.6931 12.3523 14.7336ZM11.1883 14.4909C11.2419 14.1625 11.1115 13.8196 10.8123 13.6821C10.7443 13.9166 10.9587 14.3211 11.1883 14.4909ZM10.6699 14.3291C10.8363 14.0517 10.5539 13.6942 10.3467 13.5203C10.2523 13.6861 10.4203 14.1836 10.6699 14.3291ZM10.1803 14.0865C10.3403 13.8519 10.1515 13.4394 9.94991 13.2777C9.86991 13.5082 9.94991 13.9247 10.1803 14.0865ZM9.51231 13.0366C9.34911 13.2251 9.48831 13.6352 9.68831 13.8455C9.84271 13.619 9.73471 13.2647 9.51231 13.0366ZM9.12031 12.6824C9.02431 12.8789 9.09631 13.4346 9.37151 13.5818C9.50911 13.361 9.33951 12.8296 9.12031 12.6824ZM9.02111 13.4241C9.05951 13.1175 8.53631 12.7859 8.32031 12.794C8.34431 13.0415 8.56671 13.3141 9.02111 13.4249V13.4241ZM9.28031 13.8236C9.03791 13.5769 8.56831 13.5769 8.40031 13.6295C8.44591 13.7711 9.00031 14.0857 9.28031 13.8236ZM9.68031 14.0938C9.32351 14.0048 9.09391 13.932 8.88031 14.1374C9.03231 14.3138 9.60831 14.2628 9.68031 14.093V14.0938ZM10.1603 14.3033C9.82591 14.1334 9.42271 14.3841 9.36031 14.533C9.73231 14.6818 10.1683 14.3413 10.1603 14.3041V14.3033ZM10.6403 14.5305C10.3347 14.4124 9.98111 14.571 9.84031 14.7449C10.0051 14.8241 10.4363 14.9107 10.6403 14.5313V14.5305ZM10.3203 15.049C10.7443 15.0935 10.9075 14.956 11.0403 14.6567C10.7083 14.6163 10.3899 14.8913 10.3203 15.049Z" fill="#006750"/>
<path fill-rule="evenodd" clip-rule="evenodd" d="M8.3202 11.5323C8.5538 11.7911 8.5634 11.8542 8.5682 11.9965C8.613 12.0184 9.0842 12.3079 9.3042 12.4034C9.525 12.4988 10.165 12.4131 10.165 12.4131C10.165 12.4131 10.2514 12.3921 10.317 12.4309C10.385 12.4697 10.5378 12.6533 10.5378 12.7301C10.5378 12.8078 10.5282 12.8466 10.5282 12.8466C10.5282 12.8466 10.6602 12.8385 10.8722 12.8749C10.8586 12.8232 10.653 12.6727 10.8442 12.46C11.0362 12.2473 12.7258 11.6334 12.9866 11.7256C12.9962 11.6609 12.9402 11.2419 13.2066 11.0575C13.4786 10.8513 13.8706 11.1497 13.9426 11.1254C13.9778 11.1125 14.6986 11.0365 14.7186 11.0082C14.7362 10.979 14.1226 10.4234 14.0578 9.99309C13.9922 9.5628 14.421 9.40265 14.4882 9.40265C14.5546 9.40265 14.6122 9.40265 14.6802 9.35412C14.7458 9.30559 14.6698 9.21015 14.8418 9.05485C15.0138 8.90118 15.6178 8.50485 15.693 8.44581C15.7698 8.38758 16.4482 7.95243 16.4866 7.91441C16.525 7.87559 16.525 7.73 16.5634 7.70169C16.6018 7.67258 16.4394 7.76883 16.353 7.80684C16.2682 7.84728 15.3314 8.32044 15.2834 8.34066C15.2354 8.35927 15.0914 8.34875 15.0914 8.34875C15.0914 8.34875 14.9674 8.51375 14.9106 8.57199C14.853 8.6286 13.341 9.27566 13.1794 9.2878C11.7874 9.39133 10.4834 9.13412 10.4834 9.13412C10.4834 9.2878 10.5314 9.89684 10.4538 10.0424C10.3738 10.188 9.6802 10.0829 9.225 10.1314C8.769 10.1799 8.845 10.751 8.5594 10.738C8.4554 10.734 8.1674 10.4679 8.1386 10.4679C8.1098 10.4679 8.0874 11.2718 8.321 11.5307L8.3202 11.5323Z" fill="#FF810C"/>
</g>
<defs>
<clipPath id="clip0">
<rect x="4" y="6.5" width="16" height="11" fill="white"/>
</clipPath>
</defs>
</svg>

<svg width="24" height="24" fill="none" xmlns="http://www.w3.org/2000/svg">
    <path fill-rule="evenodd" clip-rule="evenodd" d="M5.5 6h13a2 2 0 012 2v8a2 2 0 01-2 2h-13a2 2 0 01-2-2V8a2 2 0 012-2zm0 .5A1.5 1.5 0 004 8v8a1.5 1.5 0 001.5 1.5h13A1.5 1.5 0 0020 16V8a1.5 1.5 0 00-1.5-1.5h-13z" fill="#D8DDE1"/>
    <g clip-path="url(#clip0)">
        <path d="M18.4 6.5H5.6c-.884 0-1.6.724-1.6 1.618v7.764c0 .894.716 1.618 1.6 1.618h12.8c.884 0 1.6-.724 1.6-1.618V8.118c0-.894-.716-1.618-1.6-1.618z" fill="#fff"/>
        <path fill-rule="evenodd" clip-rule="evenodd" d="M12.627 13.684c-.298.137-.428.48-.376.809.23-.169.445-.573.377-.81zm.387-.162c-.208.175-.49.531-.323.809.25-.146.417-.642.323-.81zm.397-.243c-.202.162-.39.575-.23.81.23-.163.309-.578.23-.81zm.438-.242c-.222.228-.33.582-.176.808.2-.21.34-.62.176-.808zm.495-.355c-.219.148-.388.68-.25.9.274-.147.346-.704.25-.9zm-.02.76c.463-.113.694-.392.717-.648-.22-.008-.758.336-.718.647zm-.244.383c.28.262.835-.052.88-.194-.168-.052-.637-.052-.88.194zm-.32.27c.072.17.65.219.8.043-.213-.206-.444-.132-.8-.044v.001zm-.56.21c-.008.036.428.377.8.229-.062-.148-.465-.4-.8-.23zm-.4.226c.204.38.635.293.8.214-.14-.174-.494-.332-.8-.214zm-.448.203c.146.3.323.44.79.396-.077-.16-.425-.437-.79-.396zm-1.164-.243c.054-.329-.077-.671-.376-.809-.068.235.147.64.376.809zm-.518-.162c.166-.277-.116-.635-.323-.809-.095.166.073.664.323.81zm-.49-.243c.16-.234-.028-.647-.23-.808-.08.23 0 .647.23.808zm-.668-1.05c-.163.19-.024.6.176.81.155-.227.047-.581-.176-.81zm-.392-.354c-.096.197-.024.753.252.9.137-.221-.032-.752-.252-.9zm-.099.742c.039-.306-.485-.638-.7-.63.023.247.246.52.7.63zm.26.4c-.243-.247-.713-.247-.88-.194.045.141.6.456.88.194zm.4.27c-.357-.09-.587-.162-.8.043.151.177.727.126.8-.044zm.48.21c-.335-.17-.738.08-.8.229.371.149.807-.192.8-.229zm.48.226c-.306-.118-.66.041-.8.215.164.08.595.166.8-.214zm-.32.519c.423.045.587-.093.72-.392-.333-.04-.651.234-.72.392z" fill="#006750"/>
        <path fill-rule="evenodd" clip-rule="evenodd" d="M8.32 11.532c.234.26.243.322.248.464.045.022.516.312.736.407.221.096.861.01.861.01s.086-.02.152.018c.068.039.22.222.22.3 0 .077-.009.116-.009.116s.132-.008.344.028c-.013-.052-.219-.202-.028-.415.192-.213 1.882-.827 2.143-.734.01-.065-.047-.484.22-.669.272-.206.664.093.736.068.035-.012.756-.088.776-.117.017-.029-.596-.585-.661-1.015-.066-.43.363-.59.43-.59s.124 0 .192-.049c.066-.048-.01-.144.162-.3.172-.153.776-.55.851-.608.077-.058.755-.494.794-.532.038-.038.038-.184.076-.212.039-.03-.124.067-.21.105-.085.04-1.022.513-1.07.534-.048.018-.192.008-.192.008s-.124.165-.18.223c-.058.057-1.57.704-1.732.716a11.415 11.415 0 01-2.696-.154c0 .154.048.763-.03.908-.08.146-.773.04-1.228.09-.456.048-.38.619-.666.606-.104-.004-.392-.27-.42-.27-.03 0-.052.804.182 1.063v.001z" fill="#FF810C"/>
    </g>
    <defs>
        <clipPath id="clip0">
            <path fill="#fff" d="M4 6.5h16v11H4z"/>
        </clipPath>
    </defs>
</svg>
